website/static/img/file-icon.svg

<svg fill="none" height="20" viewBox="0 0 20 20" width="20" xmlns="http://www.w3.org/2000/svg"><path d="m9.50625 2.71767-6.09494 2.28561c-.54796.20511-.91131.73256-.91131 1.31861v6.59601c0 .5333.30182 1.0197.77652 1.2571l6.09494 3.0475c.39558.1992.86154.1992 1.25704 0l6.095-3.0475c.4776-.2374.7765-.7267.7765-1.2571v-6.59601c0-.58605-.3634-1.11057-.9113-1.31568l-6.095-2.28561c-.3164-.12307-.66805-.12307-.98745-.00293zm.49525 1.81969 5.6261 2.10979v.03223l-5.6261 2.28561-5.62613-2.28561v-.03223zm.9376 10.43174v-4.3632l4.6885-1.90464v3.92364z" fill="#4b5563"/></svg>

<svg width="20" height="20" viewBox="0 0 20 20" fill="none" xmlns="http://www.w3.org/2000/svg">
<path d="M9.50625 2.71767L3.41131 5.00328C2.86335 5.20839 2.5 5.73584 2.5 6.32189V12.9179C2.5 13.4512 2.80182 13.9376 3.27652 14.175L9.37146 17.2225C9.76704 17.4217 10.233 17.4217 10.6285 17.2225L16.7235 14.175C17.2011 13.9376 17.5 13.4483 17.5 12.9179V6.32189C17.5 5.73584 17.1366 5.21132 16.5887 5.00621L10.4937 2.7206C10.1773 2.59753 9.82565 2.59753 9.50625 2.71767ZM10.0015 4.53736L15.6276 6.64715V6.67938L10.0015 8.96499L4.37537 6.67938V6.64715L10.0015 4.53736ZM10.9391 14.9691V10.6059L15.6276 8.70126V12.6249L10.9391 14.9691Z" fill="#4B5563"/>
</svg>
